X: 40360
T: Tom Dayhill's Fiddle
R: hornpipe
M: 4/4
K: Gmajor
|:G2GF GBBA|GA (3BAG g2 ef|gage dBGA|BA (3BAG AGED|
G2GF GBBA|GA (3BAG g2 ef|gage dBGB|1 AGED G2D2:|2 AGED G4||
|:gfga (3bag dB|GA (3BAG g2 ef|gage dBGA|BA (3BAG AGED|
G2GF GBBA|GA (3BAG g2 ef|gage dBGB|1 AGED G4:|2 AGED G2D2||

